azure-docs/api_qnamaker.svg

<?xml version="1.0" encoding="UTF-8"?>
<svg width="512px" height="512px" viewBox="0 0 512 512" version="1.1" xmlns="http://www.w3.org/2000/svg" xmlns:xlink="http://www.w3.org/1999/xlink">
    <!-- Generator: Sketch 46.2 (44496) - http://www.bohemiancoding.com/sketch -->
    <title>qnaMaker-wht-bluBG-512p</title>
    <desc>Created with Sketch.</desc>
    <defs></defs>
    <g id="PRODUCTION-ICONS" stroke="none" stroke-width="1" fill="none" fill-rule="evenodd">
        <g id="qnaMaker-wht-bluBG-512p">
            <rect id="Rectangle-3-Copy-21" fill="#0063B1" x="0" y="0" width="512" height="512"></rect>
            <path d="M377.442941,277.408982 L337.495427,260.119529 C336.062819,260.228088 334.63021,260.285225 333.169064,260.285225 L331.622303,260.285225 C323.694443,221.318249 289.825525,191.704491 249.221637,191.704491 L200.461583,191.704491 C200.649934,157.102731 228.160581,128.854531 261.778363,128.854531 L333.174771,128.854531 C366.900998,128.854531 394.502967,157.291281 394.502967,192.047309 L394.502967,197.086733 C394.502967,219.169923 383.361726,238.69912 366.58708,250.006399 L377.442941,277.408982 Z M249.227344,345.989715 L177.830936,345.989715 C176.36979,345.989715 174.937181,345.932579 173.504573,345.82402 L133.557059,363.113473 L144.418627,335.71089 C127.638274,324.403611 116.497033,304.874414 116.497033,282.791224 L116.497033,277.7518 C116.497033,242.995772 144.099002,214.559022 177.825229,214.559022 L179.377697,214.559022 L202.898729,214.559022 L249.221637,214.559022 C277.07474,214.559022 300.692802,233.962519 308.106978,260.285225 C309.665154,265.844589 310.55554,271.695349 310.55554,277.7518 L310.55554,282.791224 C310.55554,282.91121 310.538417,283.019769 310.538417,283.139755 C310.355774,317.741515 282.839419,345.989715 249.227344,345.989715 L249.227344,345.989715 Z M393.789517,256.679922 C408.6407,240.893155 417.33338,219.68415 417.33338,197.086733 L417.33338,192.047309 C417.33338,144.812707 379.663199,106 333.174771,106 L261.778363,106 C215.39838,106 177.813813,144.629871 177.63117,191.715918 C131.234064,191.824477 93.6666201,230.585762 93.6666201,277.7518 L93.6666201,282.791224 C93.6666201,305.388641 102.3593,326.597646 117.210483,342.384413 L92,406 L177.848059,368.844246 L249.227344,368.844246 C295.567374,368.844246 333.129111,330.260085 333.363122,283.231174 L419,320.295509 L393.789517,256.679922 Z" id="Fill-1" fill="#FFFFFF"></path>
        </g>
    </g>
</svg>

<svg width="512" height="512" xmlns="http://www.w3.org/2000/svg"><g fill="none" fill-rule="evenodd"><path fill="#0063B1" d="M0 0h512v512H0z"/><path d="M377.443 277.409l-39.948-17.29a57.044 57.044 0 0 1-4.326.166h-1.547c-7.928-38.967-41.796-68.58-82.4-68.58h-48.76c.188-34.602 27.699-62.85 61.316-62.85h71.397c33.726 0 61.328 28.436 61.328 63.192v5.04c0 22.083-11.141 41.612-27.916 52.92l10.856 27.402zm-128.216 68.58h-71.396c-1.461 0-2.894-.056-4.326-.165l-39.948 17.29 10.862-27.403c-16.78-11.307-27.922-30.837-27.922-52.92v-5.04c0-34.755 27.602-63.192 61.328-63.192H249.222c27.853 0 51.47 19.404 58.885 45.726 1.558 5.56 2.449 11.41 2.449 17.467v5.04c0 .12-.018.228-.018.348-.182 34.602-27.699 62.85-61.31 62.85zm144.563-89.31c14.85-15.786 23.543-36.995 23.543-59.592v-5.04c0-47.234-37.67-86.047-84.158-86.047h-71.397c-46.38 0-83.964 38.63-84.147 85.716-46.397.108-83.964 38.87-83.964 86.036v5.04c0 22.597 8.692 43.806 23.543 59.592L92 406l85.848-37.156h71.38c46.34 0 83.901-38.584 84.135-85.613L419 320.296l-25.21-63.616z" fill="#FFF"/></g></svg>
